dist/svgs/crypto-icons/icons/grs.svg

<?xml version="1.0" encoding="UTF-8" standalone="yes"?>
<svg xmlns="http://www.w3.org/2000/svg" xmlns:xlink="http://www.w3.org/1999/xlink" width="512px" height="512px" viewBox="0 0 384 384" version="1.1">
  <g id="surface1">
    <path style=" stroke:none;fill-rule:nonzero;fill:rgb(0%,0%,0%);fill-opacity:1;" d="M 194.03125 253.40625 C 205.363281 253.40625 214.835938 249.175781 222.109375 240.550781 C 229.386719 231.921875 233.105469 218.558594 233.105469 200.289062 C 233.105469 176.4375 227.863281 157.828125 217.542969 144.296875 C 209.929688 134.316406 200.121094 129.410156 188.109375 129.410156 C 176.945312 129.410156 167.640625 133.808594 160.199219 142.605469 C 152.753906 151.402344 148.863281 165.101562 148.863281 183.371094 C 148.863281 207.054688 153.9375 225.496094 164.089844 238.519531 C 172.039062 248.5 182.019531 253.40625 194.03125 253.40625 Z M 271 341.878906 C 263.21875 338.496094 247.824219 336.632812 224.648438 335.957031 C 190.816406 335.113281 164.933594 333.25 146.832031 330.714844 C 139.730469 338.324219 134.484375 345.429688 130.933594 352.027344 C 127.378906 358.625 125.519531 364.714844 125.519531 370.296875 L 125.519531 371.3125 L 125.6875 371.820312 C 146.324219 379.433594 168.65625 383.660156 192 383.660156 C 224.648438 383.660156 255.4375 375.542969 282.503906 360.992188 L 282.503906 360.65625 C 282.503906 359.980469 282.671875 359.132812 282.671875 358.457031 C 282.332031 350.675781 278.613281 345.09375 271 341.878906 Z M 271 341.878906 "/>
    <path style=" stroke:none;fill-rule:nonzero;fill:rgb(0%,0%,0%);fill-opacity:1;" d="M 191.832031 0 C 85.933594 0 0 85.933594 0 191.832031 C 0 266.261719 42.289062 330.714844 104.375 362.515625 L 105.050781 361.5 C 106.910156 358.964844 108.941406 356.257812 111.308594 353.210938 C 112.324219 351.859375 119.9375 343.738281 134.316406 328.851562 C 126.535156 324.285156 120.953125 320.054688 117.738281 316.335938 C 114.523438 312.613281 112.832031 308.554688 112.832031 303.816406 C 112.832031 298.574219 115.03125 292.484375 119.261719 285.378906 C 123.488281 278.273438 133.46875 268.292969 148.863281 255.4375 C 136.34375 249.347656 126.535156 240.71875 119.765625 229.722656 C 113 218.726562 109.617188 206.546875 109.617188 193.183594 C 109.617188 172.714844 117.230469 155.292969 132.625 140.574219 C 148.019531 125.855469 167.640625 118.582031 191.660156 118.582031 C 210.777344 118.582031 227.523438 123.152344 241.734375 132.285156 C 254.421875 119.765625 263.894531 109.277344 270.152344 100.652344 C 278.441406 88.980469 282.503906 78.324219 282.503906 68.679688 C 282.503906 61.238281 280.304688 55.316406 275.734375 50.410156 C 271.167969 45.675781 265.753906 43.304688 259.496094 43.304688 C 253.746094 43.304688 248.667969 44.996094 244.101562 48.378906 C 239.535156 51.765625 236.152344 56.667969 233.953125 63.097656 L 230.738281 63.097656 C 232.089844 52.441406 235.8125 44.320312 241.734375 38.738281 C 247.65625 33.15625 255.097656 30.28125 263.894531 30.28125 C 273.367188 30.28125 281.148438 33.324219 287.578125 39.414062 C 293.835938 45.503906 297.050781 52.609375 297.050781 60.898438 C 297.050781 66.820312 295.695312 72.738281 292.992188 78.660156 C 288.761719 87.964844 281.824219 97.777344 272.351562 108.09375 C 258.144531 123.65625 249.175781 132.960938 245.625 136.175781 L 276.074219 136.175781 C 282.332031 136.175781 286.5625 136.007812 289.097656 135.5 C 291.636719 134.992188 293.835938 134.144531 295.867188 132.792969 C 297.894531 131.441406 299.585938 129.410156 301.109375 126.871094 L 304.324219 126.871094 L 292.992188 156.136719 L 261.355469 156.136719 C 268.628906 166.625 272.183594 179.480469 272.183594 195.046875 C 272.183594 214.328125 264.910156 230.738281 250.191406 244.269531 C 235.476562 257.972656 215.683594 264.738281 190.984375 264.738281 C 180.835938 264.738281 170.347656 263.21875 159.691406 260.171875 C 153.09375 265.925781 148.695312 270.828125 146.324219 275.058594 C 143.957031 279.289062 142.773438 283.007812 142.773438 286.054688 C 142.773438 288.59375 143.957031 291.128906 146.496094 293.496094 C 149.03125 295.867188 153.769531 297.558594 161.042969 298.742188 C 165.273438 299.417969 175.761719 299.925781 192.507812 300.265625 C 223.464844 300.941406 243.425781 302.125 252.558594 303.476562 C 266.433594 305.507812 277.597656 310.582031 286.054688 319.042969 C 294.34375 327.5 298.574219 337.820312 298.574219 350.167969 L 298.574219 351.519531 C 349.660156 317.011719 383.324219 258.648438 383.324219 192.339844 C 383.660156 85.933594 297.726562 0 191.832031 0 Z M 191.832031 0 "/>
  </g>
</svg>

<svg xmlns="http://www.w3.org/2000/svg" viewBox="0 0 384 384"><path d="M194.031 253.406c11.332 0 20.805-4.23 28.078-12.855 7.278-8.63 10.996-21.992 10.996-40.262 0-23.851-5.242-42.46-15.562-55.992-7.613-9.98-17.422-14.887-29.434-14.887-11.164 0-20.468 4.399-27.91 13.195-7.445 8.797-11.336 22.497-11.336 40.766 0 23.684 5.075 42.125 15.227 55.149 7.95 9.98 17.93 14.886 29.941 14.886zM271 341.88c-7.781-3.383-23.176-5.246-46.352-5.922-33.832-.844-59.714-2.707-77.816-5.242-7.102 7.61-12.348 14.715-15.898 21.312-3.555 6.598-5.414 12.688-5.414 18.27v1.015l.168.508A191.216 191.216 0 00192 383.66c32.648 0 63.438-8.117 90.504-22.668v-.336c0-.676.168-1.523.168-2.199-.34-7.781-4.059-13.363-11.672-16.578zm0 0"/><path d="M191.832 0C85.934 0 0 85.934 0 191.832c0 74.43 42.29 138.883 104.375 170.684l.676-1.016c1.86-2.535 3.89-5.242 6.258-8.29 1.015-1.35 8.629-9.472 23.007-24.358-7.78-4.567-13.363-8.797-16.578-12.516-3.215-3.723-4.906-7.781-4.906-12.52 0-5.242 2.2-11.332 6.43-18.437 4.226-7.106 14.207-17.086 29.601-29.942-12.52-6.09-22.328-14.718-29.097-25.714-6.766-10.996-10.149-23.176-10.149-36.54 0-20.468 7.613-37.89 23.008-52.609 15.395-14.719 35.016-21.992 59.035-21.992 19.117 0 35.863 4.57 50.074 13.703 12.688-12.52 22.16-23.008 28.418-31.633 8.29-11.672 12.352-22.328 12.352-31.972 0-7.442-2.2-13.364-6.77-18.27-4.566-4.734-9.98-7.105-16.238-7.105-5.75 0-10.828 1.691-15.394 5.074-4.567 3.387-7.95 8.289-10.149 14.719h-3.215c1.352-10.657 5.075-18.778 10.996-24.36 5.922-5.582 13.364-8.457 22.16-8.457 9.473 0 17.254 3.043 23.684 9.133 6.258 6.09 9.473 13.195 9.473 21.484 0 5.922-1.356 11.84-4.059 17.762-4.23 9.305-11.168 19.117-20.64 29.434-14.207 15.562-23.176 24.867-26.727 28.082h30.45c6.257 0 10.488-.168 13.023-.676 2.539-.508 4.738-1.355 6.77-2.707 2.027-1.352 3.718-3.383 5.241-5.922h3.215l-11.332 29.266h-31.637c7.274 10.488 10.829 23.343 10.829 38.91 0 19.281-7.274 35.691-21.993 49.223-14.714 13.703-34.507 20.468-59.207 20.468-10.148 0-20.636-1.52-31.293-4.566-6.597 5.754-10.996 10.656-13.367 14.887-2.367 4.23-3.55 7.949-3.55 10.996 0 2.539 1.183 5.074 3.722 7.441 2.535 2.371 7.274 4.063 14.547 5.246 4.23.676 14.719 1.184 31.465 1.524 30.957.675 50.918 1.859 60.05 3.21 13.876 2.032 25.04 7.106 33.497 15.567 8.289 8.457 12.52 18.777 12.52 31.125v1.352c51.085-34.508 84.75-92.872 84.75-159.18C383.66 85.934 297.726 0 191.831 0zm0 0"/></svg>
